X:1
T:Title
%%score { ( 1 3 4 ) | ( 2 5 6 ) }
L:1/8
M:4/4
K:Eb
V:1 treble nm="Grand Piano"
V:3 treble 
V:4 treble 
V:2 bass 
V:5 bass 
V:6 bass 
V:1
 z4 z2[Q:1/4=100] EF | G2 G2 BGEF | G2 G2 G2 FE | D2 E2 [DF][EG][FA][Ac] | [GB]2 [B,FA]2 G2 EF | %5
 G2 G2 BGEF | G2 G2 G2 FE | D2 [DB]2 [DB][DA][DG][CF] | E2 E2 E4 | z2 z B =ABcB | %10
 GB,[B,EG]B, G2 z2 | z2 z B =ABcB | F2 [EF]2 F2 z2 | B2 B2 [Ge]2 [GB]2 | [Bd]2 c2 c4 | %15
 B3 B =AB[D_A]F |[M:3/4][K:bass] E6 |] %17
V:2
 z4 z2 [E,G,][E,A,E] | [E,B,E]2 [E,B,E]2 [E,G,E][E,B,E][E,G,][E,A,E] | %2
 [E,B,E]2 [E,B,E]2 [E,B,E]2 [E,A,B,][E,G,B,] | [B,,F,B,]2 [B,,G,B,]2 [B,,B,][B,,B,][B,,B,][B,,B,] | %4
 [B,,B,]2 C,D, [E,B,E]2 [E,G,][E,A,E] | [E,B,E]2 [E,B,E]2 [E,G,E][E,B,E][E,G,][E,A,E] | %6
 [E,B,E]2 [E,B,E]2 [E,B,E]2 [E,A,B,][E,G,B,] | [B,,F,B,]2 [B,,F,]2 [B,,F,][B,,F,][B,,B,][B,,A,] | %8
 [E,G,B,]2 [E,A,C]2 [E,G,B,]4 | E4 z4 | z4 E2 z2 | E4 z4 | D2 z2 z4 | %13
 [E,G,E]2 [E,G,E]2 [E,B,]2 [E,E]2 | [A,E]2 [A,EA]2 [A,EA]4 | %15
 [B,EG]3 [B,EG] [B,E_G][B,E=G][K:bass][B,,B,][B,,A,B,] |[M:3/4] .[G,B,]2 z2 z2 |] %17
V:3
 x8 | x8 | x8 | x8 | x8 | x8 | x8 | x8 | x8 | B4 z4 | x8 | B4 z4 | z B,=A,C z _A,GA | x8 | x8 | %15
 x8 |[M:3/4][K:bass] z B, C=B, _B,2 |] %17
V:4
 x8 | x8 | x8 | x8 | x8 | x8 | x8 | x8 | x8 | z2 G,2 z4 | x8 | z2 G,2 z4 | x8 | x8 | x8 | x8 | %16
[M:3/4][K:bass] x6 |] %17
V:5
 x8 | x8 | x8 | x8 | x8 | x8 | x8 | x8 | x8 | [E,G,]2 z E EEEE | [E,B,E]B,,C,D, [E,B,]4 | %11
 [E,G,]2 z E EE[E,G,E][G,B,E] | B,B,,C,F, [B,D]2 [G,B,E][F,B,D] | x8 | x8 | x6[K:bass] x2 | %16
[M:3/4] E,-[E,-G,] [E,-A,][E,-A,] [E,G,]2 |] %17
V:6
 x8 | x8 | x8 | x8 | x8 | x8 | x8 | x8 | x8 | z2 E,2 [E,G,]2 [E,G,]2 | x8 | z2 E,2 [E,G,]2 z2 | %12
 x8 | x8 | x8 | x6[K:bass] x2 |[M:3/4] x6 |] %17

